X:1
T:The Duke of Athole
T:The Duke of Athole
T:Alexander Walker
C:Alexander Walker
L:1/8
Q:1/8=128
M:4/4
K:Bmin
V:1 treble 
V:1
|: B,>C D>E F2 F>E | F2 F>E D<A, A,>C | B,>C D>E F2 F<c | d>B F>A F<B B2 | B,>C D>E F2 F>E | %5
 F2 F>E D<A, A,>C | B,>D C>E D>F E>G | F>B ^A>c d<B Bd | f>B f/e/d/c/ f<B d>B | %9
 e>A d/c/B/A/ e<A c>A | f>B f/e/d/c/ f<B d>B | A>F E>C B,/B,/B, B,>b | f>B f/e/d/c/ f<B d>B | %13
 e>A d/c/B/A/ e<A c>A | B<F B>c d>e f>^g | a>f e<c B/B/B B2 :| %16

